svg/u1f493.svg

<svg viewBox="0 0 128 128" xmlns="http://www.w3.org/2000/svg">
  <g>
    <g>
      <path d="M90.47,27.22C71.11,27.22,64,47,64,47s-7.02-19.78-26.52-19.78c-14.65,0-31.36,11.61-25.18,38 c6.17,26.39,51.75,59.28,51.75,59.28s45.41-32.88,51.59-59.27C121.8,38.83,106.3,27.22,90.47,27.22z" fill="#EF5592"/>
      <g>
        <path d="M34.49,29.19c15.2,0,22.75,16.34,25.18,22.96c0.35,0.94,1.66,0.98,2.06,0.05l2.23-5.2 c-3.14-10.02-11.76-19.78-26.48-19.78c-6.09,0-12.54,2.02-17.55,6.26C24.36,30.58,29.55,29.19,34.49,29.19z" fill="#DA2E75"/>
        <path d="M90.47,27.22c-4.68,0-8.94,1.02-12.26,3.07c2.33-0.9,5.22-1.09,8.08-1.09 c14.32,0,27.14,10.86,21.36,35.97c-4.97,21.55-33.99,47.7-42.85,57.68c-0.56,0.63-0.76,1.66-0.76,1.66s45.41-32.88,51.59-59.27 C121.8,38.83,106.32,27.22,90.47,27.22z" fill="#DA2E75"/>
      </g>
      <path d="M22.47,41.23c3.31-4.14,9.23-7.55,14.25-3.62c2.71,2.13,1.53,6.5-0.9,8.34 c-3.54,2.68-6.61,4.31-8.76,8.51c-1.29,2.53-2.07,5.29-2.46,8.11c-0.16,1.11-1.61,1.38-2.17,0.41 C18.7,56.36,17.64,47.26,22.47,41.23z" fill="#F386AB"/>
      <path d="M75.6,49.92c-1.55,0-2.65-1.5-2.08-2.95c1.06-2.66,2.41-5.25,4.05-7.55 c2.42-3.39,7.03-5.37,9.94-3.32c2.99,2.11,2.6,6.31,0.5,8.34C83.5,48.81,77.83,49.92,75.6,49.92z" fill="#F386AB"/>
    </g>
    <g>
      <g>
        <path d="M85.46,21.16c3.75-2.68,16.78-6.01,26.98,0.95s11.06,20.62,10.11,25.08l-0.4,0.04 c-0.53-4.28-3.15-14.63-13.57-21.88c-8.98-6.25-21.96-4.05-23.01-3.81L85.46,21.16z" fill="#DA2E75"/>
        <path d="M93.99,11.04c3.21-2.01,13.19-5.69,22.21-0.19s10.77,15.84,10.45,19.6l-0.38,0.12 c-0.5-2.64-4.68-11.65-13.12-16.03s-19.08-3.11-19.08-3.11L93.99,11.04z" fill="#F48FB1"/>
      </g>
      <g>
        <path d="M42.54,21.16c-3.75-2.68-16.78-6.01-26.98,0.95S4.5,42.73,5.45,47.19l0.4,0.04 c0.53-4.28,3.15-14.63,13.57-21.88c8.98-6.25,21.96-4.05,23.01-3.81L42.54,21.16z" fill="#DA2E75"/>
        <path d="M34.01,11.04c-3.21-2.01-13.19-5.69-22.21-0.19S1.03,26.69,1.35,30.45l0.38,0.12 c0.5-2.64,4.68-11.65,13.12-16.03s19.08-3.11,19.08-3.11L34.01,11.04z" fill="#F48FB1"/>
      </g>
    </g>
    <g>
      <g>
        <path d="M40.88,115.41c-4.31-0.54-8.2-2.27-11.73-4.43c-3.52-2.2-6.69-4.9-9.44-7.97 c-2.75-3.06-5.11-6.48-6.95-10.19c-1.8-3.72-3.17-7.72-3.39-12.04l0.45-0.22l1.43,2.57c0.51,0.84,1,1.69,1.53,2.51 c1.03,1.66,2.11,3.3,3.25,4.9c2.27,3.19,4.74,6.24,7.38,9.13c2.6,2.92,5.38,5.7,8.34,8.27l2.25,1.89l2.32,1.8l2.37,1.74 l2.44,1.63L40.88,115.41z" fill="#DA2E75"/>
        <path d="M28.19,118.75c-3.25-0.54-6.12-1.72-8.86-3.21c-2.71-1.52-5.27-3.46-7.44-5.87 c-2.18-2.39-3.9-5.23-5.02-8.2c-1.09-2.99-1.75-6.07-1.61-9.36l0.37-0.16c1.24,2.7,2.54,5.37,4.02,7.92 c1.48,2.56,3.22,4.96,5.22,7.12c1.96,2.2,4.16,4.18,6.47,6.04c1.15,0.94,2.33,1.83,3.52,2.72c1.18,0.91,2.37,1.78,3.57,2.67 L28.19,118.75z" fill="#F48FB1"/>
      </g>
      <g>
        <path d="M118.62,80.79c-0.21,4.33-1.57,8.33-3.38,12.05c-1.84,3.71-4.19,7.12-6.95,10.18 c-2.76,3.05-5.93,5.76-9.45,7.96c-3.54,2.16-7.42,3.89-11.73,4.44l-0.26-0.43l2.44-1.63l2.37-1.74l2.32-1.8l2.25-1.89 c2.96-2.57,5.73-5.34,8.34-8.27c2.64-2.89,5.11-5.94,7.38-9.13c1.14-1.6,2.22-3.23,3.25-4.9c0.53-0.82,1.02-1.67,1.53-2.51 l1.43-2.57L118.62,80.79z" fill="#DA2E75"/>
        <path d="M122.74,92.1c0.14,3.3-0.51,6.38-1.61,9.37c-1.12,2.97-2.84,5.81-5.03,8.2 c-2.18,2.4-4.73,4.35-7.44,5.86c-2.74,1.49-5.6,2.67-8.85,3.21l-0.23-0.33c1.2-0.88,2.39-1.76,3.57-2.67 c1.19-0.89,2.37-1.78,3.52-2.72c2.3-1.86,4.51-3.84,6.47-6.04c2-2.16,3.73-4.56,5.22-7.12c0.74-1.28,1.44-2.58,2.09-3.91 c0.67-1.32,1.3-2.66,1.92-4.01L122.74,92.1z" fill="#F48FB1"/>
      </g>
    </g>
  </g>
</svg>

<svg viewBox="0 0 128 128" xmlns="http://www.w3.org/2000/svg">
  <defs/>
  <path d="M90.47,27.22 C71.11,27.22 64,47 64,47 C64,47 56.98,27.22 37.48,27.22 C22.83,27.22 6.12,38.83 12.3,65.22 C18.47,91.61 64.05,124.5 64.05,124.5 C64.05,124.5 109.46,91.62 115.64,65.23 C121.8,38.83 106.3,27.22 90.47,27.22 Z" fill="#EF5592"/>
  <path d="M34.49,29.19 C49.69,29.19 57.24,45.53 59.67,52.15 C60.02,53.09 61.33,53.13 61.73,52.2 L63.96,47 C60.82,36.98 52.2,27.22 37.48,27.22 C31.39,27.22 24.94,29.24 19.93,33.48 C24.36,30.58 29.55,29.19 34.49,29.19 Z" fill="#DA2E75"/>
  <path d="M90.47,27.22 C85.79,27.22 81.53,28.24 78.21,30.29 C80.54,29.39 83.43,29.2 86.29,29.2 C100.61,29.2 113.43,40.06 107.65,65.17 C102.68,86.72 73.66,112.87 64.8,122.85 C64.24,123.48 64.04,124.51 64.04,124.51 C64.04,124.51 109.45,91.63 115.63,65.24 C121.8,38.83 106.32,27.22 90.47,27.22 Z" fill="#DA2E75"/>
  <path d="M22.47,41.23 C25.78,37.09 31.7,33.68 36.72,37.61 C39.43,39.74 38.25,44.11 35.82,45.95 C32.28,48.63 29.21,50.26 27.06,54.46 C25.77,56.99 24.99,59.75 24.6,62.57 C24.44,63.68 22.99,63.95 22.43,62.98 C18.7,56.36 17.64,47.26 22.47,41.23 Z" fill="#F386AB"/>
  <path d="M75.6,49.92 C74.05,49.92 72.95,48.42 73.52,46.97 C74.58,44.31 75.93,41.72 77.57,39.42 C79.99,36.03 84.6,34.05 87.51,36.1 C90.5,38.21 90.11,42.41 88.01,44.44 C83.5,48.81 77.83,49.92 75.6,49.92 Z" fill="#F386AB"/>
  <path d="M85.46,21.16 C89.21,18.48 102.24,15.15 112.44,22.11 C122.64,29.07 123.5,42.73 122.55,47.19 L122.15,47.23 C121.62,42.95 119,32.6 108.58,25.35 C99.6,19.1 86.62,21.3 85.57,21.54 L85.46,21.16 Z" fill="#DA2E75"/>
  <path d="M93.99,11.04 C97.2,9.03 107.18,5.35 116.2,10.85 C125.22,16.35 126.97,26.69 126.65,30.45 L126.27,30.57 C125.77,27.93 121.59,18.92 113.15,14.54 C104.71,10.16 94.07,11.43 94.07,11.43 L93.99,11.04 Z" fill="#F48FB1"/>
  <path d="M42.54,21.16 C38.79,18.48 25.76,15.15 15.56,22.11 C5.36,29.07 4.5,42.73 5.45,47.19 L5.85,47.23 C6.38,42.95 9,32.6 19.42,25.35 C28.4,19.1 41.38,21.3 42.43,21.54 L42.54,21.16 Z" fill="#DA2E75"/>
  <path d="M34.01,11.04 C30.8,9.03 20.82,5.35 11.8,10.85 C2.78,16.35 1.03,26.69 1.35,30.45 L1.73,30.57 C2.23,27.93 6.41,18.92 14.85,14.54 C23.29,10.16 33.93,11.43 33.93,11.43 L34.01,11.04 Z" fill="#F48FB1"/>
  <path d="M40.88,115.41 C36.57,114.87 32.68,113.14 29.15,110.98 C25.63,108.78 22.46,106.08 19.71,103.01 C16.96,99.95 14.6,96.53 12.76,92.82 C10.96,89.1 9.59,85.1 9.37,80.78 L9.82,80.56 L11.25,83.13 C11.76,83.97 12.25,84.82 12.78,85.64 C13.81,87.3 14.89,88.94 16.03,90.54 C18.3,93.73 20.77,96.78 23.41,99.67 C26.01,102.59 28.79,105.37 31.75,107.94 L34,109.83 L36.32,111.63 L38.69,113.37 L41.13,115 L40.88,115.41 Z" fill="#DA2E75"/>
  <path d="M28.19,118.75 C24.94,118.21 22.07,117.03 19.33,115.54 C16.62,114.02 14.06,112.08 11.89,109.67 C9.71,107.28 7.99,104.44 6.87,101.47 C5.78,98.48 5.12,95.4 5.26,92.11 L5.63,91.95 C6.87,94.65 8.17,97.32 9.65,99.87 C11.13,102.43 12.87,104.83 14.87,106.99 C16.83,109.19 19.03,111.17 21.34,113.03 C22.49,113.97 23.67,114.86 24.86,115.75 C26.04,116.66 27.23,117.53 28.43,118.42 L28.19,118.75 Z" fill="#F48FB1"/>
  <path d="M118.62,80.79 C118.41,85.12 117.05,89.12 115.24,92.84 C113.4,96.55 111.05,99.96 108.29,103.02 C105.53,106.07 102.36,108.78 98.84,110.98 C95.3,113.14 91.42,114.87 87.11,115.42 L86.85,114.99 L89.29,113.36 L91.66,111.62 L93.98,109.82 L96.23,107.93 C99.19,105.36 101.96,102.59 104.57,99.66 C107.21,96.77 109.68,93.72 111.95,90.53 C113.09,88.93 114.17,87.3 115.2,85.63 C115.73,84.81 116.22,83.96 116.73,83.12 L118.16,80.55 L118.62,80.79 Z" fill="#DA2E75"/>
  <path d="M122.74,92.1 C122.88,95.4 122.23,98.48 121.13,101.47 C120.01,104.44 118.29,107.28 116.1,109.67 C113.92,112.07 111.37,114.02 108.66,115.53 C105.92,117.02 103.06,118.2 99.81,118.74 L99.58,118.41 C100.78,117.53 101.97,116.65 103.15,115.74 C104.34,114.85 105.52,113.96 106.67,113.02 C108.97,111.16 111.18,109.18 113.14,106.98 C115.14,104.82 116.87,102.42 118.36,99.86 C119.1,98.58 119.8,97.28 120.45,95.95 C121.12,94.63 121.75,93.29 122.37,91.94 L122.74,92.1 Z" fill="#F48FB1"/>
</svg>
